X: 15
T: The Eclipse
C: Compos'd by Mr. W. Ware
R: reel, march
B: Bland & Weller, eds. "24 Favorite Country Dances, Hornpipes and Reels", 1803, London p.8 #15
S: http://imslp.org/wiki/24_Favorite_Country_Dances,_Hornpipes_and_Reels_(Various)
M: 2/4
L: 1/8
Z: 2012 John Chambers <jc:trillian.mit.edu>
N: 2nd part has extra 8th-note in repeat; fixed by shortening last note.
K: Bb
F |\
B>cBd | BFFD | B>cBd | cAFA |\
B>cBd | BFFD | GBAc | Bd B :|
|: d |\
e>fge dfBd | c>dcB | AGFA |\
B>cBd | BFFD | GBAc | Bd B :|
%%begintext align
%% Set & half right & left .|
%% back again :|
%% down the middle :|.
%% Poussette :|:
%%endtext

%%sep 1 1 500
%%sep 1 1 500
